static/images/user-logos/starry.svg

<svg viewBox="0 0 36 12.07" xmlns="http://www.w3.org/2000/svg"><path d="m14 6.81a1 1 0 0 1 -1.15 1 1.87 1.87 0 0 1 -1.31-.51.11.11 0 0 1 0-.16l.21-.25a.13.13 0 0 1 .09 0 .11.11 0 0 1 .08 0 1.33 1.33 0 0 0 1 .4c.33 0 .55-.16.55-.4 0-.17-.05-.32-.69-.45s-1.1-.37-1.1-1a1 1 0 0 1 1.11-.94 1.68 1.68 0 0 1 1.13.4.11.11 0 0 1 0 .16l-.2.27a.12.12 0 0 1 -.08 0h-.08a1.19 1.19 0 0 0 -.8-.3c-.31 0-.52.15-.52.36 0 .18 0 .33.72.47.92.19 1.04.61 1.04.95zm4.09-2.31h-2.37a.13.13 0 0 0 -.12.12v.31a.12.12 0 0 0 .12.12h.89v2.58a.12.12 0 0 0 .12.11h.34a.11.11 0 0 0 .12-.11v-2.58h.89a.12.12 0 0 0 .12-.12v-.31a.11.11 0 0 0 -.11-.12zm4.5 3.08a.09.09 0 0 1 0 .11.1.1 0 0 1 -.09 0h-.37a.11.11 0 0 1 -.13-.01l-.31-.68h-1.49l-.32.73a.11.11 0 0 1 -.11.06h-.35a.09.09 0 0 1 -.09 0 .11.11 0 0 1 0-.11l1.37-3a.11.11 0 0 1 .11-.07h.31a.12.12 0 0 1 .11.07zm-1.14-1.17-.45-1.13-.51 1.13zm5.55 1.15a.1.1 0 0 1 0 .12.11.11 0 0 1 -.1.06h-.42a.11.11 0 0 1 -.09 0l-.84-1.13h-.68v1.02a.12.12 0 0 1 -.12.11h-.34a.12.12 0 0 1 -.12-.11v-3a.13.13 0 0 1 .12-.12h1.29a1.34 1.34 0 0 1 .94.33 1 1 0 0 1 .26.68 1 1 0 0 1 -.73 1zm-1.35-1.56c.39 0 .65-.2.65-.5 0-.31-.24-.48-.65-.48h-.81v.98zm5.85 1.56a.13.13 0 0 1 0 .12.11.11 0 0 1 -.1.06h-.4a.11.11 0 0 1 -.09 0l-.84-1.13h-.69v1.02a.11.11 0 0 1 -.11.11h-.34a.11.11 0 0 1 -.12-.11v-3a.12.12 0 0 1 .12-.12h1.29a1.34 1.34 0 0 1 .94.33 1 1 0 0 1 .26.68 1 1 0 0 1 -.73 1zm-1.32-1.56c.4 0 .66-.2.66-.5 0-.31-.24-.48-.65-.48h-.82v.98zm5.82-1.43a.12.12 0 0 0 -.11-.07h-.39a.12.12 0 0 0 -.1 0l-.93 1.36-.91-1.36a.12.12 0 0 0 -.1 0h-.46a.11.11 0 0 0 -.11.06.11.11 0 0 0 0 .12l1.23 1.79v1.16a.11.11 0 0 0 .12.11h.34a.12.12 0 0 0 .12-.11v-1.16l1.3-1.78a.11.11 0 0 0 0-.12zm-27.45-2.33h-2.93l1-1.8a.27.27 0 0 0 -.2-.44h-5.7a.27.27 0 0 0 -.25.44l2.85 4.93c.14.24.36.24.51 0l1-1.67 1.43 2.54c.11.2.3.2.42 0l2.09-3.63a.23.23 0 0 0 -.22-.37zm-5.66 4.14h-2.68c-.21 0-.21.14-.21.29l1.38 2.33c.1.17.25.17.34 0l1.34-2.33a.18.18 0 0 0 -.17-.29zm1.3 3.75h-1.83c-.16 0-.23.11-.15.25l.92 1.62c.07.14.21.14.29 0l.92-1.59c.08-.17.01-.28-.15-.28zm4-3h-1.19c-.12 0-.16.09-.1.18l.63 1.09c0 .1.15.1.21 0l.58-1.1c.06-.1.01-.18-.1-.18z" fill="#3d3d57"/></svg>

<svg xmlns="http://www.w3.org/2000/svg" viewBox="0 0 36 12.07"><defs><style>.cls-1{fill:#3d3d57;}</style></defs><title>Asset 4</title><g id="Layer_2" data-name="Layer 2"><g id="Layer_1-2" data-name="Layer 1"><path class="cls-1" d="M14,6.81h0a1,1,0,0,1-1.15,1,1.87,1.87,0,0,1-1.31-.51.11.11,0,0,1,0-.16l.21-.25a.13.13,0,0,1,.09,0,.11.11,0,0,1,.08,0,1.33,1.33,0,0,0,1,.4c.33,0,.55-.16.55-.4h0c0-.17-.05-.32-.69-.45s-1.1-.37-1.1-1h0a1,1,0,0,1,1.11-.94,1.68,1.68,0,0,1,1.13.4.11.11,0,0,1,0,.16l-.2.27a.12.12,0,0,1-.08,0l-.08,0a1.19,1.19,0,0,0-.8-.3c-.31,0-.52.15-.52.36h0c0,.18,0,.33.72.47h0C13.88,6.05,14,6.47,14,6.81ZM18.09,4.5H15.72a.13.13,0,0,0-.12.12v.31a.12.12,0,0,0,.12.12h.89V7.63a.12.12,0,0,0,.12.11h.34a.11.11,0,0,0,.12-.11V5.05h.89a.12.12,0,0,0,.12-.12V4.62A.11.11,0,0,0,18.09,4.5Zm4.5,3.08a.09.09,0,0,1,0,.11.1.1,0,0,1-.09,0h-.37A.11.11,0,0,1,22,7.68L21.69,7H20.2l-.32.73a.11.11,0,0,1-.11.06h-.35a.09.09,0,0,1-.09,0,.11.11,0,0,1,0-.11l1.37-3a.11.11,0,0,1,.11-.07h.31a.12.12,0,0,1,.11.07ZM21.45,6.41,21,5.28l-.51,1.13ZM27,7.56a.1.1,0,0,1,0,.12.11.11,0,0,1-.1.06h-.42a.11.11,0,0,1-.09,0l-.84-1.13h-.68V7.63a.12.12,0,0,1-.12.11h-.34a.12.12,0,0,1-.12-.11v-3a.13.13,0,0,1,.12-.12h1.29a1.34,1.34,0,0,1,.94.33,1,1,0,0,1,.26.68h0a1,1,0,0,1-.73,1ZM25.65,6c.39,0,.65-.2.65-.5h0c0-.31-.24-.48-.65-.48h-.81V6ZM31.5,7.56a.13.13,0,0,1,0,.12.11.11,0,0,1-.1.06H31a.11.11,0,0,1-.09,0l-.84-1.13h-.69V7.63a.11.11,0,0,1-.11.11h-.34a.11.11,0,0,1-.12-.11v-3a.12.12,0,0,1,.12-.12h1.29a1.34,1.34,0,0,1,.94.33,1,1,0,0,1,.26.68h0a1,1,0,0,1-.73,1ZM30.18,6c.4,0,.66-.2.66-.5h0c0-.31-.24-.48-.65-.48h-.82V6ZM36,4.57a.12.12,0,0,0-.11-.07h-.39a.12.12,0,0,0-.1,0l-.93,1.36-.91-1.36a.12.12,0,0,0-.1,0H33a.11.11,0,0,0-.11.06.11.11,0,0,0,0,.12l1.23,1.79V7.63a.11.11,0,0,0,.12.11h.34a.12.12,0,0,0,.12-.11V6.47L36,4.69A.11.11,0,0,0,36,4.57ZM8.55,2.24H5.62l1-1.8A.27.27,0,0,0,6.42,0H.72A.27.27,0,0,0,.47.44L3.32,5.37c.14.24.36.24.51,0l1-1.67L6.26,6.24c.11.2.3.2.42,0L8.77,2.61A.23.23,0,0,0,8.55,2.24ZM2.89,6.38H.21C0,6.38,0,6.52,0,6.67L1.38,9c.1.17.25.17.34,0L3.06,6.67A.18.18,0,0,0,2.89,6.38Zm1.3,3.75H2.36c-.16,0-.23.11-.15.25L3.13,12c.07.14.21.14.29,0l.92-1.59C4.42,10.24,4.35,10.13,4.19,10.13Zm4-3H7c-.12,0-.16.09-.1.18l.63,1.09c0,.1.15.1.21,0L8.32,7.3C8.38,7.2,8.33,7.12,8.22,7.12Z"/></g></g></svg>
